X: 42820
T: Why So
R: jig
M: 6/8
K: Dmajor
D3 DFA|dcd efg|D3 DFA|dcd efe|
D3 DFA|dcd efg|a2f gfe|fef gfe:|
DFA DFA|dfd AFA|BEF GFE|d2d AFA|
def gfg|agf gfe|fef gfe|d2d ABA:|

